icons/glyphs/glyph-installer.svg

<?xml version="1.0" encoding="UTF-8" standalone="no"?><svg height="16" viewBox="0 0 4.2333333 4.2333333" width="16" xmlns="http://www.w3.org/2000/svg"><sodipodi:namedview/><metadata><rdf:RDF><cc:Work><dc:format>image/svg+xml</dc:format><dc:type/><dc:title/></cc:Work></rdf:RDF></metadata><path d="m-.00000002-.00000145v4.23333615h4.23333332v-4.23333615h-1.2571606v1.33408215h.7795349l-.8158521 1.0923555-.8165858 1.0923557-.8165857-1.0923557-.81585213-1.0923555h.76266033v-1.33408215z" fill="#d0d0d0" stroke-width=".343958"/></svg>

<?xml version="1.0" encoding="UTF-8" standalone="no"?>
<!-- Created with Inkscape (http://www.inkscape.org/) -->

<svg
     xmlns:dc="http://purl.org/dc/elements/1.1/"
     xmlns:cc="http://creativecommons.org/ns#"
     xmlns:rdf="http://www.w3.org/1999/02/22-rdf-syntax-ns#"
     xmlns:svg="http://www.w3.org/2000/svg"
     xmlns="http://www.w3.org/2000/svg"
     xmlns:sodipodi="http://sodipodi.sourceforge.net/DTD/sodipodi-0.dtd"
     xmlns:inkscape="http://www.inkscape.org/namespaces/inkscape"
     width="16"
     height="16"
     viewBox="0 0 4.2333333 4.2333333"
     version="1.1"
     id="svg8"
     inkscape:version="0.92+devel (fa9b7f7a5b, 2017-07-19, custom)"
     sodipodi:docname="glyph-installer.svg">
    <defs
         id="defs2" />
    <sodipodi:namedview
         id="base"
         pagecolor="#002466"
         bordercolor="#ffffff"
         borderopacity="0.38039216"
         inkscape:pageopacity="1"
         inkscape:pageshadow="2"
         inkscape:zoom="10.137867"
         inkscape:cx="56.05412"
         inkscape:cy="27.302424"
         inkscape:document-units="px"
         inkscape:current-layer="svg8"
         inkscape:document-rotation="0"
         showgrid="false"
         inkscape:showpageshadow="false"
         borderlayer="true"
         inkscape:window-width="1920"
         inkscape:window-height="1051"
         inkscape:window-x="0"
         inkscape:window-y="0"
         inkscape:window-maximized="1"
         units="px"
         inkscape:snap-page="false"
         inkscape:snap-grids="false"
         inkscape:snap-to-guides="false"
         inkscape:object-paths="true"
         inkscape:snap-intersection-paths="true"
         inkscape:snap-center="true" />
    <metadata
         id="metadata5">
        <rdf:RDF>
            <cc:Work
                 rdf:about="">
                <dc:format>image/svg+xml</dc:format>
                <dc:type
                     rdf:resource="http://purl.org/dc/dcmitype/StillImage" />
                <dc:title></dc:title>
            </cc:Work>
        </rdf:RDF>
    </metadata>
    <path
         style="fill:#d0d0d0;stroke-width:0.34395832"
         d="M -2e-8,-1.45e-6 V 4.2333347 H 4.2333333 V -1.45e-6 H 2.9761727 V 1.3340807 H 3.7557076 L 2.9398555,2.4264362 2.1232697,3.5187919 1.306684,2.4264362 0.49083187,1.3340807 H 1.2534922 V -1.45e-6 Z"
         id="rect836"
         inkscape:connector-curvature="0"
         inkscape:label="#" />
</svg>
